// SensiPath proposal sample adapted for the existing RetroDraw GUI
COLOR RED
RECT (-100,-100) (100,100)

COLOR BLUE
SET_POS (0,0)
LET STEP = 5

REPEAT 120 [
  MOVE STEP + 0
  IF ON_COLOR RED [
    TURN 180
    COLOR GREEN
  ]
]
